svg/fluentui-system-icons/ic_fluent_server_20_regular.svg

<svg width="20" height="20" viewBox="0 0 20 20" fill="none" xmlns="http://www.w3.org/2000/svg">
<path d="M7.5 5C7.22386 5 7 5.22386 7 5.5C7 5.77614 7.22386 6 7.5 6H12.5C12.7761 6 13 5.77614 13 5.5C13 5.22386 12.7761 5 12.5 5H7.5ZM7 12.5C7 12.2239 7.22386 12 7.5 12H12.5C12.7761 12 13 12.2239 13 12.5C13 12.7761 12.7761 13 12.5 13H7.5C7.22386 13 7 12.7761 7 12.5ZM7.5 14C7.22386 14 7 14.2239 7 14.5C7 14.7761 7.22386 15 7.5 15H12.5C12.7761 15 13 14.7761 13 14.5C13 14.2239 12.7761 14 12.5 14H7.5ZM5 4.5C5 3.11929 6.11929 2 7.5 2H12.5C13.8807 2 15 3.11929 15 4.5V15.5C15 16.8807 13.8807 18 12.5 18H7.5C6.11929 18 5 16.8807 5 15.5V4.5ZM7.5 3C6.67157 3 6 3.67157 6 4.5V15.5C6 16.3284 6.67157 17 7.5 17H12.5C13.3284 17 14 16.3284 14 15.5V4.5C14 3.67157 13.3284 3 12.5 3H7.5Z" fill="#212121"/>
</svg>

<svg xmlns="http://www.w3.org/2000/svg" width="20" height="20"><path d="M7.5 5a.5.5 0 0 0 0 1h5a.5.5 0 0 0 0-1h-5ZM7 12.5a.5.5 0 0 1 .5-.5h5a.5.5 0 0 1 0 1h-5a.5.5 0 0 1-.5-.5Zm.5 1.5a.5.5 0 0 0 0 1h5a.5.5 0 0 0 0-1h-5ZM5 4.5A2.5 2.5 0 0 1 7.5 2h5A2.5 2.5 0 0 1 15 4.5v11a2.5 2.5 0 0 1-2.5 2.5h-5A2.5 2.5 0 0 1 5 15.5v-11ZM7.5 3A1.5 1.5 0 0 0 6 4.5v11A1.5 1.5 0 0 0 7.5 17h5a1.5 1.5 0 0 0 1.5-1.5v-11A1.5 1.5 0 0 0 12.5 3h-5Z"/></svg>
